X: 135010
T: MY LOVE IS IN AMERICA
Q: "Irish Reel."
R: Reel.
%R: reel
B: James Kerr "Merry Melodies" v.1 p.35 s.0 #10
Z: 2017 John Chambers <jc:trillian.mit.edu>
M: C
L: 1/8
K: D
|: uG |\
FEFG ABcA | Addc (Ad)d2 |\
FEFG ABcd | cAGA (ED) D :|\
ug |\
fded fded | Addc Addg |
fded fded | cAGA (ED)D2 |\
fded fded | Addc Adde |\
fgag fdec | cAGA (ED) D |]

%%sep 1 1 500
%%sep 1 1 500

